;FLAVOR:Marlin
;TIME:14898
;Filament used: 12.052m
;Layer height: 0.2
;MINX:63.665
;MINY:32.335
;MINZ:0.24
;MAXX:156.258
;MAXY:187.665
;MAXZ:10.09
;Generated with Cura_SteamEngine 4.8.0
M140 S75
M105
M190 S75
M104 S240
M105
M109 S240
M82 ;absolute extrusion mode
; Ender 3 Custom Start G-code
G92 E0 ; Reset Extruder
G28 ; Home all axes
G1 Z2.0 F3000 ; Move Z Axis up little to prevent scratching of Heat Bed
G1 X0.1 Y20 Z0.3 F5000.0 ; Move to start position
G1 X0.1 Y200.0 Z0.3 F1500.0 E15 ; Draw the first line
G1 X0.4 Y200.0 Z0.3 F5000.0 ; Move to side a little
G1 X0.4 Y20 Z0.3 F1500.0 E30 ; Draw the second line
G92 E0 ; Reset Extruder
G1 Z2.0 F3000 ; Move Z Axis up little to prevent scratching of Heat Bed
G1 X5 Y20 Z0.3 F5000.0 ; Move over to prevent blob squish
G92 E0
G92 E0
G1 F1500 E-6.5
;LAYER_COUNT:45
;LAYER:-6
M107
G0 F9000 X67.136 Y41.405 Z0.24
;TYPE:SUPPORT-INTERFACE
G1 F1500 E0
G1 F1125 X67.271 Y41.186 E0.02054
G1 X67.687 Y40.546 E0.08147
G1 X67.741 Y40.473 E0.08872
G1 X68.647 Y39.304 E0.20677
G1 X68.706 Y39.232 E0.21421
G1 X68.916 Y38.992 E0.23966
G1 X69.533 Y38.329 E0.31196
G1 X69.673 Y38.189 E0.32776
G1 X70.382 Y37.533 E0.40487
G1 X70.48 Y37.445 E0.41538
G1 X70.654 Y37.297 E0.43361
G1 X71.41 Y36.694 E0.51081
G1 X71.557 Y36.586 E0.52537
G1 X72.375 Y36.032 E0.60423
G1 X72.52 Y35.938 E0.61802
G1 X72.737 Y35.805 E0.63834
G1 X73.575 Y35.326 E0.71539
G1 X73.711 Y35.255 E0.72764
G1 X74.751 Y34.767 E0.81934
G1 X75.027 Y34.649 E0.8433
G1 X75.118 Y34.613 E0.85111
G1 X75.991 Y34.285 E0.92555
G1 X76.149 Y34.233 E0.93883
G1 X77.304 Y33.903 E1.03472
G1 X77.58 Y33.835 E1.05741
G1 X78.127 Y33.714 E1.10213
G1 X79.144 Y33.549 E1.18437
G1 X79.313 Y33.527 E1.19797
G1 X79.935 Y33.465 E1.24787
G1 X80.231 Y33.443 E1.27156
G1 X81.379 Y33.4 E1.36327
G1 X138.621 Y33.4 E5.93257
G1 X138.714 Y33.402 E5.94
G1 X139.769 Y33.443 E6.02427
G1 X140.057 Y33.464 E6.04732
G1 X140.158 Y33.473 E6.05542
G1 X141.091 Y33.581 E6.13039
G1 X141.251 Y33.606 E6.14332
G1 X142.3 Y33.808 E6.22859
G1 X142.685 Y33.9 E6.26019
G1 X143.583 Y34.148 E6.33456
G1 X143.724 Y34.192 E6.34635
G1 X144.772 Y34.571 E6.43531
G1 X144.874 Y34.61 E6.44402
G1 X145.046 Y34.68 E6.45885
G1 X145.159 Y34.729 E6.46868
G1 X145.975 Y35.098 E6.54016
G1 X146.149 Y35.184 E6.55566
G1 X147.127 Y35.725 E6.64487
G1 X147.265 Y35.806 E6.65765
G1 X147.484 Y35.941 E6.67818
G1 X148.135 Y36.364 E6.74016
G1 X149.361 Y37.313 E6.86391
G1 X149.447 Y37.383 E6.87276
G1 X149.597 Y37.512 E6.88856
G1 X150.341 Y38.203 E6.96961
G1 X150.481 Y38.343 E6.98541
G1 X151.13 Y39.044 E7.06167
G1 X151.225 Y39.15 E7.07303
G1 X151.373 Y39.324 E7.09127
G1 X151.976 Y40.08 E7.16846
G1 X152.084 Y40.227 E7.18302
G1 X152.638 Y41.045 E7.26188
G1 X152.732 Y41.19 E7.27568
G1 X152.865 Y41.407 E7.29599
G1 X153.344 Y42.245 E7.37304
G1 X153.412 Y42.376 E7.38482
G1 X153.903 Y43.421 E7.47699
G1 X154.011 Y43.673 E7.49888
G1 X154.064 Y43.807 E7.51038
G1 X154.385 Y44.66 E7.58313
G1 X154.437 Y44.819 E7.59648
G1 X154.767 Y45.973 E7.69229
G1 X154.835 Y46.25 E7.71506
G1 X154.956 Y46.798 E7.75986
G1 X155.124 Y47.828 E7.84316
G1 X155.14 Y47.949 E7.85291
G1 X155.2 Y48.538 E7.90017
G1 X155.219 Y48.759 E7.91787
G1 X155.268 Y49.948 E8.01286
G1 X155.27 Y50.037 E8.01997
G1 X155.269 Y110.54 E12.84958
G1 X155.264 Y110.688 E12.8614
G1 X155.262 Y110.952 E12.88248
G1 X155.27 Y111.479 E12.92455
G1 X155.27 Y169.975 E17.59395
G1 X155.267 Y170.107 E17.60449
G1 X155.215 Y171.287 E17.69878
G1 X155.201 Y171.482 E17.71438
G1 X155.19 Y171.587 E17.72281
G1 X155.068 Y172.555 E17.80069
G1 X155.048 Y172.678 E17.81064
G1 X154.879 Y173.542 E17.88091
G1 X154.783 Y173.956 E17.91484
G1 X154.538 Y174.866 E17.99006
G1 X154.482 Y175.043 E18.00488
G1 X153.982 Y176.399 E18.12025
G1 X153.887 Y176.625 E18.13982
G1 X153.831 Y176.75 E18.15075
G1 X153.434 Y177.586 E18.22463
G1 X153.351 Y177.744 E18.23887
G1 X152.918 Y178.51 E18.30911
G1 X152.792 Y178.719 E18.32859
G1 X152.747 Y178.791 E18.33537
G1 X152.207 Y179.605 E18.41335
G1 X152.123 Y179.722 E18.42484
G1 X151.453 Y180.579 E18.51168
G1 X151.27 Y180.796 E18.53434
G1 X151.177 Y180.902 E18.54559
G1 X150.568 Y181.569 E18.61769
G1 X150.42 Y181.718 E18.63445
G1 X149.633 Y182.452 E18.72036
G1 X149.518 Y182.555 E18.73268
G1 X149.377 Y182.676 E18.74751
G1 X149.278 Y182.757 E18.75772
G1 X148.564 Y183.324 E18.8305
G1 X148.4 Y183.446 E18.84682
G1 X147.576 Y184.004 E18.92626
G1 X147.295 Y184.18 E18.95272
G1 X146.486 Y184.644 E19.02717
G1 X146.306 Y184.737 E19.04334
G1 X145.15 Y185.275 E19.14512
G1 X145.037 Y185.325 E19.15499
G1 X144.785 Y185.426 E19.17666
G1 X143.884 Y185.756 E19.25325
G1 X143.752 Y185.798 E19.26431
G1 X142.828 Y186.064 E19.34106
G1 X142.543 Y186.135 E19.36451
G1 X141.577 Y186.34 E19.44334
G1 X141.361 Y186.376 E19.46082
G1 X140.134 Y186.53 E19.55953
G1 X139.855 Y186.553 E19.58187
G1 X138.729 Y186.598 E19.67183
G1 X138.617 Y186.6 E19.68077
G1 X81.441 Y186.6 E24.24481
G1 X81.316 Y186.597 E24.25479
G1 X80.116 Y186.543 E24.35067
G1 X79.979 Y186.534 E24.36163
G1 X79.681 Y186.507 E24.38552
G1 X78.731 Y186.387 E24.46195
G1 X78.553 Y186.357 E24.47636
G1 X77.571 Y186.158 E24.55634
G1 X77.316 Y186.097 E24.57727
G1 X76.377 Y185.836 E24.65507
G1 X76.208 Y185.782 E24.66923
G1 X75.279 Y185.448 E24.74804
G1 X75.094 Y185.375 E24.76391
G1 X74.969 Y185.322 E24.77475
G1 X74.154 Y184.963 E24.84584
G1 X73.969 Y184.873 E24.86226
G1 X72.852 Y184.26 E24.96397
G1 X72.708 Y184.177 E24.97724
G1 X72.442 Y184.01 E25.00231
G1 X71.723 Y183.532 E25.07123
G1 X71.541 Y183.4 E25.08917
G1 X70.657 Y182.703 E25.17903
G1 X70.566 Y182.628 E25.18845
G1 X70.421 Y182.503 E25.20373
G1 X69.677 Y181.814 E25.28467
G1 X69.537 Y181.674 E25.30048
G1 X68.808 Y180.882 E25.3864
G1 X68.73 Y180.794 E25.39579
G1 X68.552 Y180.582 E25.41789
G1 X67.959 Y179.828 E25.49446
G1 X67.845 Y179.671 E25.50995
G1 X67.428 Y179.058 E25.56913
G1 X67.276 Y178.824 E25.5914
G1 X67.207 Y178.712 E25.6019
G1 X66.746 Y177.926 E25.67464
G1 X66.65 Y177.744 E25.69106
G1 X66.144 Y176.694 E25.7841
G1 X66.037 Y176.447 E25.80559
G1 X65.686 Y175.539 E25.8833
G1 X65.618 Y175.338 E25.90024
G1 X65.245 Y174.044 E26.00773
G1 X65.202 Y173.875 E26.02166
G1 X65.124 Y173.532 E26.04973
G1 X64.939 Y172.582 E26.12699
G1 X64.915 Y172.434 E26.13896
G1 X64.804 Y171.512 E26.21309
G1 X64.785 Y171.311 E26.22921
G1 X64.734 Y170.111 E26.32508
G1 X64.73 Y169.962 E26.33698
G1 X64.731 Y111.428 E31.00942
G1 X64.739 Y111.193 E31.02819
G1 X64.74 Y110.858 E31.05493
G1 X64.73 Y110.507 E31.08296
G1 X64.73 Y50.045 E35.9093
G1 X64.732 Y49.956 E35.9164
G1 X64.775 Y48.872 E36.003
G1 X64.791 Y48.639 E36.02164
G1 X64.808 Y48.464 E36.03568
G1 X64.91 Y47.588 E36.10608
G1 X64.942 Y47.384 E36.12256
G1 X65.13 Y46.416 E36.20127
G1 X65.155 Y46.296 E36.21106
G1 X65.231 Y45.985 E36.23661
G1 X65.478 Y45.086 E36.31103
G1 X65.522 Y44.946 E36.32275
G1 X65.901 Y43.898 E36.41171
G1 X65.94 Y43.796 E36.42042
G1 X66.056 Y43.517 E36.44454
G1 X66.428 Y42.695 E36.51657
G1 X66.517 Y42.516 E36.53252
G1 X67.055 Y41.543 E36.62127
G1 X67.136 Y41.405 E36.63405
G0 F9000 X67.2 Y41.301
G1 F1125 X67.2 Y178.7 E47.60183
G0 F9000 X68.8 Y180.872
G1 F1125 X68.8 Y39.124 E58.91677
G0 F9000 X70.4 Y37.516
G1 F1125 X70.4 Y182.483 E70.48866
G0 F9000 X72 Y183.716
G1 F1125 X72 Y36.285 E82.25724
G0 F9000 X73.6 Y35.312
G1 F1125 X73.6 Y184.67 E94.17964
G0 F9000 X75.2 Y185.416
G1 F1125 X75.2 Y34.582 E106.21986
G0 F9000 X76.8 Y34.047
G1 F1125 X76.8 Y185.953 E118.34566
G0 F9000 X78.4 Y186.325
G1 F1125 X78.4 Y33.669 E130.53132
G0 F9000 X80 Y33.46
G1 F1125 X80 Y186.535 E142.75043
G0 F9000 X81.6 Y186.6
G1 F1125 X81.6 Y33.4 E154.97951
G0 F9000 X83.2 Y33.4
G1 F1125 X83.2 Y186.6 E167.2086
G0 F9000 X84.8 Y186.6
G1 F1125 X84.8 Y33.4 E179.43769
G0 F9000 X86.4 Y33.4
G1 F1125 X86.4 Y186.6 E191.66677
G0 F9000 X88 Y186.6
G1 F1125 X88 Y33.4 E203.89586
G0 F9000 X89.6 Y33.4
G1 F1125 X89.6 Y186.6 E216.12495
G0 F9000 X91.2 Y186.6
G1 F1125 X91.2 Y33.4 E228.35403
G0 F9000 X92.8 Y33.4
G1 F1125 X92.8 Y186.6 E240.58312
G0 F9000 X94.4 Y186.6
G1 F1125 X94.4 Y33.4 E252.81221
G0 F9000 X96 Y33.4
G1 F1125 X96 Y186.6 E265.04129
G0 F9000 X97.6 Y186.6
G1 F1125 X97.6 Y33.4 E277.27038
G0 F9000 X99.2 Y33.4
G1 F1125 X99.2 Y186.6 E289.49947
G0 F9000 X100.8 Y186.6
G1 F1125 X100.8 Y33.4 E301.72855
G0 F9000 X102.4 Y33.4
G1 F1125 X102.4 Y186.6 E313.95764
G0 F9000 X104 Y186.6
G1 F1125 X104 Y33.4 E326.18672
G0 F9000 X105.6 Y33.4
G1 F1125 X105.6 Y186.6 E338.41581
G0 F9000 X107.2 Y186.6
G1 F1125 X107.2 Y33.4 E350.6449
G0 F9000 X108.8 Y33.4
G1 F1125 X108.8 Y186.6 E362.87398
G0 F9000 X110.4 Y186.6
G1 F1125 X110.4 Y33.4 E375.10307
G0 F9000 X112 Y33.4
G1 F1125 X112 Y186.6 E387.33216
G0 F9000 X113.6 Y186.6
G1 F1125 X113.6 Y33.4 E399.56124
G0 F9000 X115.2 Y33.4
G1 F1125 X115.2 Y186.6 E411.79033
G0 F9000 X116.8 Y186.6
G1 F1125 X116.8 Y33.4 E424.01942
G0 F9000 X118.4 Y33.4
G1 F1125 X118.4 Y186.6 E436.2485
G0 F9000 X120 Y186.6
G1 F1125 X120 Y33.4 E448.47759
G0 F9000 X121.6 Y33.4
G1 F1125 X121.6 Y186.6 E460.70668
G0 F9000 X123.2 Y186.6
G1 F1125 X123.2 Y33.4 E472.93576
G0 F9000 X124.8 Y33.4
G1 F1125 X124.8 Y186.6 E485.16485
G0 F9000 X126.4 Y186.6
G1 F1125 X126.4 Y33.4 E497.39393
G0 F9000 X128 Y33.4
G1 F1125 X128 Y186.6 E509.62302
G0 F9000 X129.6 Y186.6
G1 F1125 X129.6 Y33.4 E521.85211
G0 F9000 X131.2 Y33.4
G1 F1125 X131.2 Y186.6 E534.08119
G0 F9000 X132.8 Y186.6
G1 F1125 X132.8 Y33.4 E546.31028
G0 F9000 X134.4 Y33.4
G1 F1125 X134.4 Y186.6 E558.53937
G0 F9000 X136 Y186.6
G1 F1125 X136 Y33.4 E570.76845
G0 F9000 X137.6 Y33.4
G1 F1125 X137.6 Y186.6 E582.99754
G0 F9000 X139.2 Y186.58
G1 F1125 X139.2 Y33.421 E595.22335
G0 F9000 X140.8 Y33.548
G1 F1125 X140.8 Y186.447 E607.42841
G0 F9000 X142.4 Y186.166
G1 F1125 X142.4 Y33.832 E619.58837
G0 F9000 X144 Y34.292
G1 F1125 X144 Y185.714 E631.67553
G0 F9000 X145.6 Y185.066
G1 F1125 X145.6 Y34.929 E643.66012
G0 F9000 X147.2 Y35.768
G1 F1125 X147.2 Y184.235 E655.51139
G0 F9000 X148.8 Y183.137
G1 F1125 X148.8 Y36.879 E667.18634
G0 F9000 X150.4 Y38.262
G1 F1125 X150.4 Y181.737 E678.63913
G0 F9000 X152 Y179.88
G1 F1125 X152 Y40.113 E689.79594
G0 F9000 X153.6 Y42.777
G1 F1125 X153.6 Y177.237 E700.52912
G1 F1500 E694.02912
G0 F9000 X154.795 Y177.201
G0 X155.557 Y175.174
G0 X155.992 Y173.311
G0 X156.247 Y171.713
G0 X155.2 Y171.492
G1 F1500 E700.52912
G1 F1125 X155.2 Y48.538 E710.34384
G1 F1500 E703.84384
G0 F9000 X156.258 Y48.43
G0 X156.002 Y46.599
G0 X155.385 Y44.298
G0 X154.873 Y42.983
G0 X154.275 Y41.728
G0 X153.527 Y40.459
G0 X152.816 Y39.427
G0 X151.253 Y37.611
G0 X150.027 Y36.483
G0 X148.741 Y35.49
G0 X146.64 Y34.24
G0 X145.146 Y33.574
G0 X143.877 Y33.124
G0 X142.511 Y32.765
G0 X141.238 Y32.527
G0 X139.819 Y32.381
G0 X138.635 Y32.335
G0 X81.25 Y32.338
G0 X78.995 Y32.494
G0 X76.962 Y32.892
G0 X75.628 Y33.285
G0 X74.313 Y33.797
G0 X73.058 Y34.395
G0 X71.789 Y35.143
G0 X70.757 Y35.854
G0 X68.941 Y37.416
G0 X67.817 Y38.638
G0 X66.819 Y39.929
G0 X65.57 Y42.03
G0 X65.193 Y42.876
G0 X64.598 Y44.369
G0 X65.6 Y44.73
G1 F1500 E710.34384
G1 F1125 X65.6 Y175.275 E720.76451
G1 F1500 E714.26451
G0 F300 X65.6 Y175.275 Z0.54
G0 F9000 X64.683 Y175.896
G0 X65.182 Y177.149
G0 X65.543 Y177.886
G0 X66.453 Y179.512
G0 X67.626 Y179.349
;TIME_ELAPSED:496.230359
;LAYER:-5
;TYPE:SUPPORT
G1 F1500 E720.76451
G1 F1125 X71.976 Y183.699 E721.37834
G1 X71.723 Y183.53 E721.4087
G1 X71.54 Y183.399 E721.43115
G1 X70.656 Y182.702 E721.54348
G1 X70.566 Y182.627 E721.55517
G1 X70.421 Y182.502 E721.57427
G1 X69.676 Y181.812 E721.67559
G1 X69.537 Y181.673 E721.69521
G1 X68.807 Y180.881 E721.80268
G1 X68.73 Y180.793 E721.81435
G1 X68.551 Y180.581 E721.84203
G1 X67.958 Y179.827 E721.93775
G1 X67.845 Y179.67 E721.95705
G1 F1500 E715.45705
G0 F9000 X67.105 Y180.464
G0 X68.017 Y181.594
G0 X68.933 Y182.575
G0 X69.532 Y183.118
G0 X71.109 Y184.401
G0 X71.976 Y183.699
G1 F1500 E721.95705
G1 F1125 X72.441 Y184.008 E722.01276
G1 X72.708 Y184.176 E722.04423
G1 X72.851 Y184.259 E722.06073
G1 X73.969 Y184.871 E722.18791
G1 X74.154 Y184.962 E722.20848
G1 X74.968 Y185.321 E722.29725
G1 X75.044 Y185.353 E722.30547
G1 X65.973 Y176.282 E723.58549
G1 X65.685 Y175.537 E723.66519
G1 X65.618 Y175.337 E723.68623
G1 X65.283 Y174.178 E723.80661
G1 X77.157 Y186.051 E725.48209
G1 X77.316 Y186.096 E725.49858
G1 X77.571 Y186.157 E725.52474
G1 X78.553 Y186.355 E725.6247
G1 X78.73 Y186.386 E725.64263
G1 X78.93 Y186.411 E725.66274
G1 X64.909 Y172.389 E727.64133
G1 X64.804 Y171.51 E727.72966
G1 X64.785 Y171.31 E727.7497
G1 X64.764 Y170.83 E727.79764
G1 X80.492 Y186.558 E730.01703
G1 X81.316 Y186.596 E730.09934
G1 X81.441 Y186.599 E730.11182
G1 X81.947 Y186.599 E730.1623
G1 X64.729 Y169.381 E732.59195
G1 X64.729 Y167.967 E732.73304
G1 X83.361 Y186.599 E735.36222
G1 X84.775 Y186.599 E735.50331
G1 X64.729 Y166.553 E738.33201
G1 X64.729 Y165.139 E738.4731
G1 X86.189 Y186.599 E741.50134
G1 X87.604 Y186.599 E741.64253
G1 X64.729 Y163.724 E744.87044
G1 X64.729 Y162.31 E745.01153
G1 X89.018 Y186.599 E748.43897
G1 X90.432 Y186.599 E748.58006
G1 X64.729 Y160.896 E752.20703
G1 X64.729 Y159.482 E752.34812
G1 X91.846 Y186.599 E756.17462
G1 X93.261 Y186.599 E756.31581
G1 X64.729 Y158.068 E760.34191
G1 X64.729 Y156.653 E760.4831
G1 X94.675 Y186.599 E764.70881
G1 X96.089 Y186.599 E764.8499
G1 X64.729 Y155.239 E769.27513
G1 X64.729 Y153.825 E769.41622
G1 X97.503 Y186.599 E774.04099
G1 X98.917 Y186.599 E774.18207
G1 X64.729 Y152.411 E779.00637
G1 X64.729 Y150.996 E779.14756
G1 X100.332 Y186.599 E784.17153
G1 X101.746 Y186.599 E784.31262
G1 X64.729 Y149.582 E789.53612
G1 X64.729 Y148.168 E789.67721
G1 X103.16 Y186.599 E795.10023
G1 X104.574 Y186.599 E795.24132
G1 X64.729 Y146.754 E800.86388
G1 X64.729 Y145.34 E801.00497
G1 X105.988 Y186.599 E806.82706
G1 X107.403 Y186.599 E806.96825
G1 X64.729 Y143.925 E812.99002
G1 X64.729 Y142.511 E813.13111
G1 X108.817 Y186.599 E819.3524
G1 X110.231 Y186.599 E819.49349
G1 X64.729 Y141.097 E825.91431
G1 X64.73 Y139.683 E826.0554
G1 X111.645 Y186.599 E832.67568
G1 X113.06 Y186.599 E832.81687
G1 X64.73 Y138.269 E839.63676
G1 X64.73 Y136.855 E839.77785
G1 X114.474 Y186.599 E846.79726
G1 X115.888 Y186.599 E846.93835
G1 X64.73 Y135.441 E854.1573
G1 X64.73 Y134.027 E854.29839
G1 X117.302 Y186.599 E861.71687
G1 X118.716 Y186.599 E861.85796
G1 X64.73 Y132.612 E869.47603
G1 X64.73 Y131.198 E869.61712
G1 X120.131 Y186.599 E877.4348
G1 X121.545 Y186.599 E877.57589
G1 X64.73 Y129.784 E885.5931
G1 X64.73 Y128.37 E885.73419
G1 X122.959 Y186.599 E893.95093
G1 X124.373 Y186.599 E894.09202
G1 X64.73 Y126.956 E902.5083
G1 X64.73 Y125.541 E902.64948
G1 X125.787 Y186.599 E911.26536
G1 X127.202 Y186.599 E911.40655
G1 X64.73 Y124.127 E920.22202
G1 X64.73 Y122.713 E920.36311
G1 X128.616 Y186.599 E929.37811
G1 X130.03 Y186.599 E929.5192
G1 X64.73 Y121.299 E938.73374
G1 X64.73 Y119.885 E938.87483
G1 X131.444 Y186.599 E948.2889
G1 X132.859 Y186.599 E948.43008
G1 X64.73 Y118.47 E958.04382
G1 X64.73 Y117.056 E958.18491
G1 X134.273 Y186.599 E967.99818
G1 X135.687 Y186.599 E968.13927
G1 X64.73 Y115.642 E978.15207
G1 X64.73 Y114.228 E978.29316
G1 X137.101 Y186.599 E988.50549
G1 X138.515 Y186.599 E988.64658
G1 X64.73 Y112.813 E999.05851
G1 X64.731 Y111.427 E999.1968
G1 X64.732 Y111.401 E999.1994
G1 X139.88 Y186.549 E1009.8036
G1 X140.134 Y186.529 E1009.82902
G1 X141.146 Y186.401 E1009.9308
G1 X64.729 Y109.984 E1020.71406
G1 X64.729 Y108.569 E1020.85525
G1 X142.337 Y186.177 E1031.80658
G1 X142.542 Y186.134 E1031.82748
G1 X142.827 Y186.063 E1031.85679
G1 X143.455 Y185.882 E1031.922
G1 X64.729 Y107.155 E1043.03116
G1 X64.729 Y105.741 E1043.17225
G1 X144.512 Y185.524 E1054.43049
G1 X144.785 Y185.425 E1054.45947
G1 X145.037 Y185.324 E1054.48656
G1 X145.149 Y185.273 E1054.49884
G1 X145.508 Y185.106 E1054.53834
G1 X64.729 Y104.327 E1065.93713
G1 X64.729 Y102.913 E1066.07822
G1 X146.467 Y184.651 E1077.61234
G1 X146.486 Y184.643 E1077.61439
G1 X147.295 Y184.179 E1077.70745
G1 X147.365 Y184.134 E1077.71576
G1 X64.729 Y101.498 E1089.37659
G1 X64.729 Y100.084 E1089.51768
G1 X148.214 Y183.569 E1101.29831
G1 X148.399 Y183.445 E1101.32053
G1 X148.563 Y183.323 E1101.34093
G1 X149.019 Y182.961 E1101.39902
G1 X64.729 Y98.67 E1113.29332
G1 X64.729 Y97.256 E1113.43441
